X:1
T:It Is Well with My Soul - MY WELL SOUL (SWERD)
T:It Is Well with My Soul - MY WELL SOUL (SWERD)
T:Scott Werdebaugh, 2019
T:Horatio G. Spafford, 1873; Adapted by Scott W.
T:Copyright © 2019 by Scott Werdebaugh and New Heart Muisic - May copy and use freely for Christian worship and devotions with no alterations. All other rights reserved.
T:Copyright © 2019 by Scott Werdebaugh and New Heart Muisic - May copy and use freely for Christian worship and devotions with no alterations. All other rights reserved.
C:Scott Werdebaugh, 2019
Z:Copyright © 2019 by Scott Werdebaugh and New Heart Muisic - May copy and use freely for
Z:Christian worship and devotions with no alterations. All other rights reserved.
%%score ( 1 2 ) ( 3 4 )
L:1/8
Q:1/4=128
M:4/4
K:G
V:1 treble 
V:2 treble 
V:3 bass 
V:4 bass 
V:1
"^Confidently""^G" [B,D]2 | [B,G]4"^D" [A,F]2"^C" [G,E]2 |"^G" (G3 D) [B,D]2 [B,D]2 | %3
w: ~|~ ~ ~|~ * ~ ~|
w: When|peace like a|riv- * er at-|
w: Tho’|Sa- tan should|buf- * fet, tho’|
w: My|sin─ O the|bliss * of this|
w: And,|Lord, haste the|day * when the|
"^C" (E2 G2)"^D" [A,F]2 [A,F]2 |"^G" [B,G]4 z2"^D" [CA]2 |"^G" [DB]4"^D7" [CA]2"^G/D" [B,G]2 | %6
w: ~ * ~ ~|~ ~|~ ~ ~|
w: tend- * eth my|way, When|sor- rows like|
w: tri- * als should|come, Let|this blest as-|
w: glo- * ri- ous|tho’t─ My|sin─ not in|
w: faith * shall be|sight, The|clouds be rolled|
"^G" [DB]4"^D7" [CA]2"^G" [DB]2 |"^D" [DA]4 z2 [CA]2 |"^G" [DB]4 [DB]2"^D" [CA]2 | %9
w: ~ ~ ~|~ ~|~ ~ ~|
w: sea bil- lows|roll, What-|ev- er my|
w: sur- ance con-|trol, That|Christ hath re-|
w: part, but the|whole─ Is|nailed to His|
w: back as a|scroll, The|trump shall re-|
"^G" [B,G]4 [B,G]2 [B,G]2 |"^Am/C" [CA]4 [CA]2"^G/D" [B,G]2 |"^C" [CE]4"^D" [A,F]2"^GD" [B,G]2 | %12
w: ~ ~ ~|~ ~ ~|~ ~ ~|
w: lot, Thou hast|taught me to|say, “It is|
w: gard- ed my|help- less es-|tate, And hath|
w: cross, and I|bear it no|more! Praise the|
w: sound and the|Lord shall de-|scend. E- ven|
"^G" [B,D]4"^C" [CE]2 [CG]2 |"^G" [DB]4"^D7" [CA]3"^D7/C""^1st Soprano" [CG] | %14
w: ~ ~ ~|~ ~ ~|
w: well, it is|well with my|
w: shed His own|blood for my|
w: Lord, praise the|Lord, O my|
w: so─ it is|well with my|
"^G" !fermata![B,G]4 ||"^Refrain" B2 B2 |"^Gsus" B8 [B,G]2"^Am/C" [CA]2 | %17
w: ~|It is|well, \- \-|
w: soul.”|It is|well, it is|
w: soul.|It is|well, it is|
w: soul!|It is|well, it is|
w: soul.|It is|well, it is|
"^G" B4"^D7" [FA]2"^G" G2 |"^Csus" G8 [CE]2"^D7" [CF]2 |"^C" G4 [CG]2 [CE]2 | %20
w: Well with my|soul; \- \-|Soul, it is|
w: well, With my|soul, with my|soul; It is|
w: well, With my|soul, with my|soul; It is|
w: well, With my|soul, with my|soul; It is|
w: well, With my|soul, with my|soul; It is|
"^G" [B,D]4 [DB]2"^D7" [CA]2 |"^G" [B,G]4"^D7" [CA]3"^G/D" [DB] |"^D" [DA]6 z2 |[M:2/4]"^G" B2 B2 | %24
w: well, it is|well with my|soul.|It is|
w: well, it is|well with my|soul.|It is|
w: well, it is|well with my|soul.|It is|
w: well, it is|well with my|soul.|It is|
w: well, it is|well with my|soul.|It is|
[M:4/4]"^Gsus" B8 [B,G]2"^Am/C" [CA]2 |"^G" B4"^D" A2"^G" G2 |"^C" G8 [CE]2"^D7" [CF]2 | %27
w: well, \- \-|Well with my|soul; \- \-|
w: well, it is|well, With my|soul, with my|
w: well, it is|well, With my|soul, with my|
w: well, it is|well, With my|soul, with my|
w: well, it is|well, With my|soul, with my|
"^C" G4 [CG]2 [CE]2 |"^G" [B,D]4 [DB]2"^D7" [CA]2 |"^G" [B,G]4"^D7" [CA]3"^G-D" [B,G] | %30
w: Soul, it is|well, it is|well with my|
w: soul; It is|well, it is|well with my|
w: soul; It is|well, it is|well with my|
w: soul; It is|well, it is|well with my|
w: soul; It is|well, it is|well with my|
"^G" !fermata![B,G]4 z2"^Play 4 times" :| %31
w: soul.|
w: soul.|
w: soul.|
w: soul.|
w: soul.|
V:2
 x2 | x8 | B,4 x4 | C4 x4 | x8 | x8 | x8 | x8 | x8 | x8 | x8 | x8 | x8 | x8 | x4 || [B,G]2 [B,G]2 | %16
 [DG]4 x8 | [DG]4 C2 [B,D]2 | [CE]4 x8 | [CE]4 x4 | x8 | x8 | x8 |[M:2/4] [B,G]2 [B,G]2 | %24
[M:4/4] [DG]4 x8 | [DG]4 [CF]2 [B,D]2 | [CE]4 x8 | [CE]4 x4 | x8 | x8 | x6 :| %31
V:3
 [G,,G,]2 | [G,,D,]4 [D,F,]2 [C,E,]2 | (D,3 G,) [G,,G,]2 [G,,G,]2 | (G,2 E,2) [D,F,]2 [D,F,]2 | %4
w: ~|~ ~ ~|~ * ~ ~|~ * ~ ~|
 [G,,D,]4 z2 [D,F,]2 | [G,,G,]4 [D,F,]2 [D,G,]2 | [G,,G,]4 [D,F,]2 [G,,G,]2 | [D,F,]4 z2 [D,F,]2 | %8
w: ~ ~|~ ~ ~|~ ~ ~|~ ~|
 [G,,G,]4 [G,,G,]2 [D,F,]2 | [G,,D,]4 [G,,D,]2 [G,,D,]2 | [C,E,]4 [C,E,]2 [D,G,]2 | %11
w: ~ ~ ~|~ ~ ~|~ ~ ~|
 [C,G,]4 [D,F,]2 [D,G,]2 | [G,,G,]4 [C,G,]2 [C,E,]2 | [G,,G,]4 [D,F,]3"^1st Tenor" [C,E,] | %14
w: ~ ~ ~|~ ~ ~|~ ~ ~|
 !fermata![G,,D,]4 || G,2 G,2 | G,8 [G,,D,]2 [C,E,]2 | G,4 [D,F,]2 [G,,D,]2 | G,8 [C,E,]2 [D,F,]2 | %19
w: ~|It is|well, \- \-|Well with my|soul; \- \-|
 G,4 [C,E,]2 [C,G,]2 | [G,,G,]4 [G,,G,]2 [D,F,]2 | [G,,D,]4 [D,F,]3 [D,G,] | [D,F,]6 z2 | %23
w: Soul, it is|well, it is|well with my|soul.|
[M:2/4] G,2 G,2 |[M:4/4] G,8 [G,,D,]2 [C,E,]2 | G,4 [D,F,]2 [G,,D,]2 | G,8 [C,E,]2 [D,F,]2 | %27
w: It is|well, \- \-|Well with my|soul; \- \-|
 G,4 [C,E,]2 [C,G,]2 | [G,,G,]4 [G,,G,]2 [D,F,]2 | [G,,D,]4 [D,F,]3 [D,G,] | %30
w: Soul, it is|well, it is|well with my|
 !fermata![G,,D,]4 z2"^Play 4 times" :| %31
w: soul.|
V:4
 x2 | x8 | G,,4 x4 | C,4 x4 | x8 | x8 | x8 | x8 | x8 | x8 | x8 | x8 | x8 | x8 | x4 || %15
 [G,,B,,]2 [G,,D,]2 | [G,,D,]4 x8 | [G,,D,]4 x4 | [C,E,]4 x8 | [C,E,]4 x4 | x8 | x8 | x8 | %23
[M:2/4] [G,,B,,]2 [G,,D,]2 |[M:4/4] [G,,D,]4 x8 | [G,,D,]4 x4 | [C,E,]4 x8 | [C,E,]4 x4 | x8 | x8 | %30
 x6 :| %31

